X: 1321
T: Duke of Argyle's Strathspey
R: strathspey
N: This is version 2, for ABC software that understands voice overlays.
B: Niel Gow & Sons "A Collection of Strathspey Reels, etc." v.1 p.32 #1
Z: 2022 John Chambers <jc:trillian.mit.edu>
P: Standard [G,DAe] tuning:
M: C
L: 1/8
Q: "Slow"
K: D
% - - - - - - - - - -
V: 1 staves=2
|:\
A,2D2 E>DD>E & x2A,6 | D2F>D TE>DD2 & A,4A,4 | F2G>F E>DTC>B, & A,6x2 | A,<DA,D TE>DD2 ::\
A,2Td2 (e<d)(d<B) | (=c<A)(G<E)
(F<D)(TC>B,) | A,2Td2 (e<d)(d<=c) | A<=cG<c TE>DD2 :: A,2Td2 (edd)>e | A2=c>G c>d {=f}ed/c/ | d>e=f>g
{f}e>dTde | A<dd<d Te>dd2 :: C2Td2 (e<d)(d<B) | (=c<A)(G<E) (F<D)(C>B,) | A,2Td2 (e<d)(d<=c) | A<=cG<c TE>DD2 :|
% - - - - - - - - - -
% Voice 2 preserves the staff layout in the book.
V: 2 clef=bass middle=d
|:\
d2d2 d4 | d2df a2f2 | d4 A4 | d2a2 d4 :: d2d2 f2g2 | =c4 d2A2 |
d2d2 f4 | =f2e2 a2d2 :: d4 f2-f2 | e2e2 e2=c2 | d2d2 A2d2 | =f2d2 a2d2 ::
d2d2 f2g2 | e2=c2 d2a2 | d2d2 f4 | =f2e2 a2d2 :|


